X: 16682
T: Happy Aunt, The
R: reel
M: 4/4
K: Gmajor
GdcB d2cB|GdcB GEEG|DGcB d2cB|(3Bcd cB G3G-|
GdcB d2cB|GdcB GEEG|DGcB d2cB|(3Bcd cB G3d-||
ddcB GEGA|dedc BG (3EFG|d2cB GEGA|(3Bcd cB G3d-|
ddcB GEGA|dedc BG (3EFG|d2cB GEGA|(3Bcd cB G3G||

